X:337
T:The Praise of Prince Charlie
B:Joyce, P. W.; "Old Irish Folk Music and Songs"
R:song air
O:Irish
L:1/4
M:3/4
K:G
D/|\
DEF|dFG|AGE|D2 d/e/|fed|edc|Ace|d2 d/e/|
fed|edc|A/G/F/G/A/B/|c2 {dcAGFG}A/F/|DEF|dFG|AGE|D2||


